svg/s/AU.svg

<svg width="16" height="12" viewBox="0 0 16 12" fill="none" xmlns="http://www.w3.org/2000/svg">
<g clip-path="url(#clip0_270_55193)">
<rect width="16" height="12" fill="white"/>
<path fill-rule="evenodd" clip-rule="evenodd" d="M0 0H16V12H0V0Z" fill="#2E42A5"/>
<g clip-path="url(#clip1_270_55193)">
<rect width="9" height="7" fill="#2E42A5"/>
<path d="M-1.00208 6.49993L0.9784 7.36853L9.045 0.944391L10.0897 -0.346375L7.97182 -0.636686L4.68165 2.13166L2.0334 3.99688L-1.00208 6.49993Z" fill="#F7FCFF"/>
<path d="M-0.730957 7.10849L0.278004 7.61255L9.71451 -0.466309H8.29782L-0.730957 7.10849Z" fill="#F50100"/>
<path d="M10.0022 6.49993L8.02172 7.36853L-0.0448761 0.944391L-1.08953 -0.346375L1.0283 -0.636686L4.31847 2.13166L6.96673 3.99688L10.0022 6.49993Z" fill="#F7FCFF"/>
<path d="M9.93457 6.93667L8.92561 7.44073L4.90745 3.98176L3.71615 3.59529L-1.1901 -0.341973H0.226597L5.13009 3.50184L6.43256 3.96525L9.93457 6.93667Z" fill="#F50100"/>
<path fill-rule="evenodd" clip-rule="evenodd" d="M4.99226 0H3.99226V3H0V4H3.99226V7H4.99226V4H9V3H4.99226V0Z" fill="#F50100"/>
<path fill-rule="evenodd" clip-rule="evenodd" d="M3.24226 -0.75H5.74226V2.25H9.75V4.75H5.74226V7.75H3.24226V4.75H-0.75V2.25H3.24226V-0.75ZM3.99226 3H0V4H3.99226V7H4.99226V4H9V3H4.99226V0H3.99226V3Z" fill="#F7FCFF"/>
</g>
<g clip-path="url(#clip2_270_55193)">
<path d="M4.40804 9.83423L3.81761 10.3799L3.87608 9.57805L3.08136 9.45664L3.7447 9.00243L3.34412 8.30538L4.11283 8.54081L4.40804 7.79303L4.70326 8.54081L5.47196 8.30538L5.07138 9.00243L5.73472 9.45664L4.94 9.57805L4.99847 10.3799L4.40804 9.83423Z" fill="#F7FCFF"/>
<path d="M10.776 6.06899L10.3824 6.43275L10.4213 5.89821L9.89152 5.81726L10.3337 5.51446L10.0667 5.04976L10.5792 5.20671L10.776 4.70819L10.9728 5.20671L11.4853 5.04976L11.2182 5.51446L11.6604 5.81726L11.1306 5.89821L11.1696 6.43275L10.776 6.06899Z" fill="#F7FCFF"/>
<path d="M11.7147 2.37667L11.3211 2.74043L11.3601 2.20588L10.8302 2.12494L11.2725 1.82213L11.0054 1.35744L11.5179 1.51439L11.7147 1.01587L11.9115 1.51439L12.424 1.35744L12.1569 1.82213L12.5991 2.12494L12.0693 2.20588L12.1083 2.74043L11.7147 2.37667Z" fill="#F7FCFF"/>
<path d="M14.0614 4.22286L13.6678 4.58662L13.7067 4.05208L13.1769 3.97113L13.6191 3.66833L13.3521 3.20363L13.8646 3.36058L14.0614 2.86206L14.2582 3.36058L14.7707 3.20363L14.5036 3.66833L14.9458 3.97113L14.416 4.05208L14.455 4.58662L14.0614 4.22286Z" fill="#F7FCFF"/>
<path d="M12.1841 9.53054L11.7904 9.8943L11.8294 9.35975L11.2996 9.27881L11.7418 8.976L11.4748 8.51131L11.9872 8.66826L12.1841 8.16974L12.3809 8.66826L12.8933 8.51131L12.6263 8.976L13.0685 9.27881L12.5387 9.35975L12.5777 9.8943L12.1841 9.53054Z" fill="#F7FCFF"/>
<path d="M13.8266 6.64792L13.4267 6.85817L13.5031 6.41285L13.1795 6.09746L13.6267 6.03249L13.8266 5.62732L14.0266 6.03249L14.4737 6.09746L14.1502 6.41285L14.2266 6.85817L13.8266 6.64792Z" fill="#F7FCFF"/>
</g>
</g>
<defs>
<clipPath id="clip0_270_55193">
<rect width="16" height="12" fill="white"/>
</clipPath>
<clipPath id="clip1_270_55193">
<rect width="9" height="7" fill="white"/>
</clipPath>
<clipPath id="clip2_270_55193">
<rect width="12" height="10" fill="white" transform="translate(3 1)"/>
</clipPath>
</defs>
</svg>

<svg width="16" height="12" fill="none" xmlns="http://www.w3.org/2000/svg">
  <mask id="a" maskUnits="userSpaceOnUse" x="0" y="0" width="16" height="12">
    <path fill="#fff" d="M0 0h16v12H0z"/>
  </mask>
  <g mask="url(#a)">
    <path fill-rule="evenodd" clip-rule="evenodd" d="M0 0h16v12H0V0z" fill="#2E42A5"/>
    <mask id="b" maskUnits="userSpaceOnUse" x="0" y="0" width="9" height="7">
      <path fill="#fff" d="M0 0h9v7H0z"/>
    </mask>
    <g mask="url(#b)">
      <path d="M-1.002 6.5l1.98.868L9.045.944l1.045-1.29-2.118-.29-3.29 2.768-2.649 1.865L-1.002 6.5z" fill="#F7FCFF"/>
      <path d="M-.731 7.108l1.009.505 9.437-8.08H8.298L-.731 7.109z" fill="#F50100"/>
      <path d="M10.002 6.5l-1.98.868L-.045.944-1.09-.346l2.118-.29 3.29 2.768 2.649 1.865L10.002 6.5z" fill="#F7FCFF"/>
      <path d="M9.935 6.937l-1.01.504-4.018-3.46-1.19-.386L-1.19-.342H.227L5.13 3.502l1.303.463 3.502 2.972z" fill="#F50100"/>
      <mask id="c" maskUnits="userSpaceOnUse" x="-1" y="-1" width="11" height="9" fill="#000">
        <path fill="#fff" d="M-1-1h11v9H-1z"/>
        <path fill-rule="evenodd" clip-rule="evenodd" d="M4.992 0h-1v3H0v1h3.992v3h1V4H9V3H4.992V0z"/>
      </mask>
      <path fill-rule="evenodd" clip-rule="evenodd" d="M4.992 0h-1v3H0v1h3.992v3h1V4H9V3H4.992V0z" fill="#F50100"/>
      <path d="M3.992 0v-.75h-.75V0h.75zm1 0h.75v-.75h-.75V0zm-1 3v.75h.75V3h-.75zM0 3v-.75h-.75V3H0zm0 1h-.75v.75H0V4zm3.992 0h.75v-.75h-.75V4zm0 3h-.75v.75h.75V7zm1 0v.75h.75V7h-.75zm0-3v-.75h-.75V4h.75zM9 4v.75h.75V4H9zm0-1h.75v-.75H9V3zM4.992 3h-.75v.75h.75V3zm-1-2.25h1v-1.5h-1v1.5zM4.742 3V0h-1.5v3h1.5zM0 3.75h3.992v-1.5H0v1.5zM.75 4V3h-1.5v1h1.5zm3.242-.75H0v1.5h3.992v-1.5zM4.742 7V4h-1.5v3h1.5zm.25-.75h-1v1.5h1v-1.5zM4.242 4v3h1.5V4h-1.5zM9 3.25H4.992v1.5H9v-1.5zM8.25 3v1h1.5V3h-1.5zm-3.258.75H9v-1.5H4.992v1.5zM4.242 0v3h1.5V0h-1.5z" fill="#F7FCFF" mask="url(#c)"/>
    </g>
    <path d="M4.408 9.834l-.59.546.058-.802-.795-.121.664-.455-.4-.697.768.236.295-.748.295.748.769-.236-.4.697.663.455-.795.121.058.802-.59-.546zm6.368-3.765l-.394.364.04-.535-.53-.08.442-.304-.267-.464.512.157.197-.499.197.499.512-.157-.267.464.442.303-.53.081.04.535-.394-.364zm.939-3.692l-.394.363.04-.534-.53-.081.442-.303-.268-.465.513.157.197-.498.197.498.512-.157-.267.465.442.303-.53.08.04.535-.394-.363zm2.346 1.846l-.393.364.039-.535-.53-.08.442-.304-.267-.464.513.157.196-.499.197.499.513-.157-.267.464.442.303-.53.081.039.535-.394-.364zM12.184 9.53l-.394.364.04-.534-.53-.081.442-.303-.267-.465.512.157.197-.498.197.498.512-.157-.267.465.443.303-.53.08.039.535-.394-.363zm1.643-2.882l-.4.21.076-.445-.323-.316.447-.065.2-.405.2.405.447.065-.324.316.077.445-.4-.21z" fill="#F7FCFF"/>
  </g>
</svg>
